img/main-page/our-principles/01.svg

<svg width="80" height="80" viewBox="0 0 80 80" fill="none" xmlns="http://www.w3.org/2000/svg">
<path d="M39.9999 5.00586C39.0158 5.00586 38.032 5.37802 37.287 6.12305L35.2577 8.1543L32.6053 7.05469H32.6034C30.6565 6.24931 28.3984 7.18397 27.5916 9.13086L27.5858 9.14062L26.4764 12H23.8377C21.7311 12 19.9999 13.7302 19.9999 15.8379V18.4766L17.1424 19.5879L17.1327 19.5918C15.1859 20.3985 14.2476 22.6582 15.0545 24.6055L16.1541 27.2578L14.1249 29.2871C12.6336 30.777 12.6341 33.2227 14.1229 34.7129L16.1522 36.7422L15.0526 39.3945V39.3965C14.2472 41.3434 15.1838 43.6015 17.1307 44.4082L17.1405 44.4121L19.9999 45.5234V49.1621C19.9999 51.2694 21.7304 53 23.8377 53H23.9393L17.4022 68.1836L27.5135 67.0605L33.3631 75.6074L40.0057 59.9883L46.6366 75.6094L52.4862 67.0605L62.6092 68.1855L55.4569 51.8359H55.9999C58.1065 51.8359 59.8377 50.1058 59.8377 47.998V45.5352L62.8514 44.4141L62.869 44.4082C64.8157 43.6015 65.7521 41.3418 64.9452 39.3945L63.8456 36.7422L65.8768 34.7129C67.3669 33.2228 67.3669 30.7752 65.8768 29.2852L63.8456 27.2559L64.9452 24.6035C65.7505 22.6566 64.8159 20.3966 62.869 19.5898L62.8592 19.5859L59.9999 18.4766V15.8379C59.9999 13.731 58.2699 12 56.162 12H53.5233L52.412 9.14062L52.4081 9.13086C51.6014 7.18412 49.3417 6.2478 47.3944 7.05469L44.742 8.1543L42.7127 6.12305C41.9677 5.37802 40.9839 5.00586 39.9999 5.00586ZM39.9999 6.99414C40.4678 6.99414 40.9357 7.17609 41.2987 7.53906L44.2733 10.5117L48.16 8.90234C49.1087 8.50923 50.1671 8.94723 50.5604 9.89648L52.1561 14H56.162C57.19 14 57.9999 14.8108 57.9999 15.8379V19.8438L62.1034 21.4375C63.0525 21.8308 63.4901 22.8888 63.0975 23.8379L61.4881 27.7246L64.4608 30.6992C65.1867 31.4252 65.1867 32.5729 64.4608 33.2988L61.4881 36.2715L63.0975 40.1602C63.4902 41.1079 63.0526 42.1643 62.1053 42.5586L57.8377 44.1445V47.998C57.8377 49.0243 57.0252 49.8359 55.9999 49.8359H52.1444L50.5584 54.1035C50.1643 55.0507 49.1082 55.4899 48.16 55.0977L44.2733 53.4863L41.2987 56.4609C40.5727 57.1869 39.427 57.1869 38.701 56.4609L35.7264 53.4863L31.8397 55.0977C30.891 55.4908 29.8326 55.0508 29.4393 54.1016L29.4178 54.0527L27.7538 51H23.8377C22.8111 51 21.9999 50.1888 21.9999 49.1621V44.1562L17.8963 42.5605C16.9472 42.1673 16.5076 41.1093 16.9002 40.1602L18.5116 36.2734L15.537 33.2988C14.8118 32.5731 14.8121 31.4273 15.5389 30.7012L18.5135 27.7266L16.9022 23.8398C16.5091 22.8911 16.949 21.8328 17.8983 21.4395L21.9999 19.8438V15.8379C21.9999 14.8116 22.8124 14 23.8377 14H27.8456L29.4393 9.89648C29.8326 8.94738 30.8906 8.50972 31.8397 8.90234L35.7264 10.5117L38.701 7.53906C39.064 7.17609 39.5319 6.99414 39.9999 6.99414ZM41.1288 13.0566L40.328 13.459L40.1698 14.3398L40.7811 14.9941L41.1288 15.0566L41.9295 14.6562L42.0877 13.7734L41.4764 13.1191L41.1288 13.0566ZM36.6268 13.3262L35.826 13.7285L35.6678 14.6094L36.2811 15.2637L36.6268 15.3262L37.4295 14.9258L37.5858 14.043L36.9745 13.3887L36.6268 13.3262ZM45.5604 13.8848L44.7596 14.2871L44.6014 15.168L45.2127 15.8223L45.5604 15.8848L46.3612 15.4844L46.5194 14.6016L45.9081 13.9473L45.5604 13.8848ZM32.3436 14.7285L31.5428 15.1289L31.3846 16.0117L31.9959 16.666L32.3436 16.7285L33.1444 16.3262L33.3026 15.4453L32.6893 14.7891L32.3436 14.7285ZM49.6366 15.8145L48.8358 16.2168L48.6776 17.0977L49.2889 17.752L49.6366 17.8145L50.4374 17.4141L50.5956 16.5312L49.9842 15.877L49.6366 15.8145ZM28.5272 17.1309L27.7264 17.5332L27.5682 18.4141L28.1795 19.0703L28.5272 19.1309L29.328 18.7305L29.4862 17.8477L28.8729 17.1934L28.5272 17.1309ZM53.1073 18.6895L52.3065 19.0918L52.1483 19.9746L52.7616 20.6289L53.1073 20.6895L53.9081 20.2891L54.0663 19.4062L53.4549 18.752L53.1073 18.6895ZM25.451 20.4316L24.6502 20.832L24.492 21.7148L25.1053 22.3691L25.451 22.4316L26.2538 22.0293L26.41 21.1465L25.7987 20.4922L25.451 20.4316ZM55.7713 22.3301L54.9706 22.7305L54.8124 23.6133L55.4256 24.2676L55.7713 24.3301L56.5741 23.9277L56.7303 23.0449L56.119 22.3906L55.7713 22.3301ZM49.9393 23.9395L36.9999 36.8789L30.0604 29.9395L27.9393 32.0605L36.9999 41.1211L52.0604 26.0605L49.9393 23.9395ZM23.2733 24.377L22.4725 24.7793L22.3143 25.6602L22.9276 26.3164L23.2733 26.377L24.0741 25.9766L24.2323 25.0938L23.6209 24.4395L23.2733 24.377ZM57.4178 26.5273L56.6151 26.9297L56.4588 27.8105L57.0702 28.4648L57.4178 28.5273L58.2186 28.127L58.3768 27.2441L57.7635 26.5898L57.4178 26.5273ZM22.1561 28.7461L21.3553 29.1465L21.1971 30.0293L21.8084 30.6836L22.1561 30.7461L22.9569 30.3438L23.1151 29.4629L22.5038 28.8086L22.1561 28.7461ZM57.9999 31L57.1991 31.4004V31.4023L57.0409 32.2832L57.6522 32.9375L57.9999 33L58.8006 32.5977L58.9588 31.7168L58.3475 31.0625L57.9999 31ZM22.1561 33.2539L21.3553 33.6562L21.1971 34.5371L21.8084 35.1914L22.1561 35.2539L22.9569 34.8535L23.1151 33.9707L22.5038 33.3164L22.1561 33.2539ZM57.4178 35.4727L56.6151 35.873L56.4588 36.7559L57.0702 37.4102L57.4178 37.4727L58.2186 37.0703L58.3768 36.1895L57.7635 35.5352L57.4178 35.4727ZM23.2733 37.623L22.4725 38.0234L22.3143 38.9062L22.9276 39.5605L23.2733 39.623L24.0741 39.2207L24.2323 38.3398L23.6209 37.6855L23.2733 37.623ZM55.7713 39.6699L54.9706 40.0723L54.8124 40.9531L55.4256 41.6074L55.7713 41.6699L56.5741 41.2695L56.7303 40.3867L56.119 39.7324L55.7713 39.6699ZM25.451 41.5684L24.6502 41.9707L24.492 42.8535L25.1053 43.5078L25.451 43.5684L26.2538 43.168L26.41 42.2852L25.7987 41.6309L25.451 41.5684ZM53.1073 43.3086L52.3065 43.7109L52.1483 44.5938L52.7616 45.248L53.1073 45.3086L53.91 44.9082L54.0663 44.0254L53.4549 43.3711L53.1073 43.3086ZM28.5272 44.8691L27.7264 45.2695L27.5682 46.1523L28.1795 46.8066L28.5272 46.8691L29.328 46.4668L29.4862 45.5859L28.8749 44.9316L28.5272 44.8691ZM49.6366 46.1855L48.8358 46.5859L48.6776 47.4688L49.2889 48.123L49.6366 48.1855L50.4374 47.7832L50.5956 46.9023L49.9842 46.248L49.6366 46.1855ZM32.3436 47.2715L31.5428 47.6738L31.3846 48.5547L31.9959 49.2109L32.3436 49.2715L33.1444 48.8711L33.3026 47.9883L32.6893 47.334L32.3436 47.2715ZM45.5604 48.1152L44.7596 48.5156L44.6014 49.3984L45.2127 50.0527L45.5604 50.1152L46.3612 49.7129L46.5194 48.832L45.9081 48.1758L45.5604 48.1152ZM36.6288 48.6738L35.826 49.0742L35.6698 49.957L36.2811 50.6113L36.6288 50.6738L37.4295 50.2715L37.5877 49.3906L36.9745 48.7363L36.6288 48.6738ZM41.1288 48.9434L40.328 49.3438L40.1698 50.2266L40.7831 50.8809L41.1288 50.9434L41.9295 50.541L42.0877 49.6602L41.4764 49.0059L41.1288 48.9434ZM53.4159 52.1582L59.3905 65.8145L51.5135 64.9395L47.0487 71.4629L41.6034 58.6309C42.0043 58.4472 42.3843 58.2035 42.7127 57.875L44.742 55.8457L47.3944 56.9453H47.3963C49.3432 57.7507 51.6013 56.8141 52.4081 54.8672L52.4159 54.8496L53.4159 52.1582ZM26.117 53H26.5663L27.6366 54.9629L27.5916 54.8672C28.3983 56.8139 30.658 57.7522 32.6053 56.9453L35.2577 55.8457L37.287 57.875C37.6187 58.2067 38.0027 58.4527 38.4081 58.6367L32.951 71.4629L28.4862 64.9395L20.5975 65.8164L26.117 53Z" fill="#E4B564"/>
</svg>

<svg width="80" height="80" fill="none" xmlns="http://www.w3.org/2000/svg"><path d="M40 5.006c-.984 0-1.968.372-2.713 1.117l-2.03 2.031-2.652-1.1h-.002a3.851 3.851 0 00-5.011 2.077l-.006.01L26.476 12h-2.638A3.854 3.854 0 0020 15.838v2.639l-2.858 1.11-.01.005a3.854 3.854 0 00-2.078 5.014l1.1 2.652-2.03 2.03a3.852 3.852 0 00-.001 5.425l2.03 2.03-1.1 2.651v.003a3.852 3.852 0 002.078 5.011l.01.004L20 45.523v3.64A3.854 3.854 0 0023.838 53h.101l-6.537 15.184 10.111-1.123 5.85 8.546 6.643-15.619 6.63 15.621 5.85-8.548 10.123 1.124-7.152-16.35H56a3.854 3.854 0 003.838-3.837v-2.463l3.013-1.12.018-.007a3.852 3.852 0 002.076-5.014l-1.1-2.652 2.032-2.03a3.854 3.854 0 000-5.427l-2.031-2.03 1.1-2.651a3.854 3.854 0 00-2.077-5.014l-.01-.004-2.86-1.11v-2.638A3.854 3.854 0 0056.163 12h-2.639l-1.111-2.86-.004-.01a3.852 3.852 0 00-5.014-2.075l-2.652 1.1-2.03-2.032A3.824 3.824 0 0040 5.006zm0 1.988c.468 0 .936.182 1.299.545l2.974 2.973 3.887-1.61a1.821 1.821 0 012.4.994L52.156 14h4.006C57.19 14 58 14.81 58 15.838v4.006l4.103 1.593a1.822 1.822 0 01.994 2.4l-1.609 3.888 2.973 2.974a1.824 1.824 0 010 2.6l-2.973 2.973 1.61 3.888a1.82 1.82 0 01-.993 2.399l-4.267 1.586v3.853A1.824 1.824 0 0156 49.836h-3.856l-1.586 4.267a1.822 1.822 0 01-2.398.995l-3.887-1.612-2.974 2.975a1.821 1.821 0 01-2.598 0l-2.975-2.975-3.886 1.612a1.822 1.822 0 01-2.4-.996l-.022-.05L27.754 51h-3.916A1.823 1.823 0 0122 49.162v-5.006l-4.104-1.596a1.822 1.822 0 01-.996-2.4l1.612-3.887-2.975-2.974a1.821 1.821 0 01.002-2.598l2.975-2.974-1.612-3.887a1.822 1.822 0 01.996-2.4L22 19.843v-4.006c0-1.026.812-1.838 1.838-1.838h4.008l1.593-4.104a1.822 1.822 0 012.4-.994l3.887 1.61 2.975-2.973A1.83 1.83 0 0140 6.993zm1.129 6.063l-.801.402-.158.88.611.655.348.063.8-.4.159-.884-.612-.654-.347-.062zm-4.502.27l-.801.402-.158.88.613.655.346.062.802-.4.157-.883-.611-.654-.348-.063zm8.933.558l-.8.402-.159.881.612.654.347.063.801-.4.158-.883-.61-.655-.349-.062zm-13.216.844l-.801.4-.158.883.61.654.349.063.8-.403.159-.88-.614-.657-.345-.06zm17.293 1.086l-.801.402-.158.88.61.655.349.063.8-.4.159-.884-.612-.654-.347-.063zm-21.11 1.316l-.8.402-.159.881.611.656.348.06.801-.4.158-.882-.613-.655-.346-.062zm24.58 1.558l-.8.403-.159.883.614.654.345.06.801-.4.158-.883-.611-.654-.348-.063zm-27.656 1.743l-.8.4-.159.883.613.654.346.063.803-.403.156-.883-.611-.654-.348-.06zm30.32 1.898l-.8.4-.159.883.614.655.345.062.803-.402.156-.883-.611-.654-.348-.06zm-5.832 1.61L37 36.879l-6.939-6.94-2.12 2.121L37 41.121l15.06-15.06-2.12-2.122zm-26.666.437l-.8.402-.159.881.614.656.345.061.801-.4.158-.883-.611-.655-.348-.062zm34.145 2.15l-.803.403-.156.88.611.655.348.062.8-.4.159-.883-.614-.654-.345-.063zm-35.262 2.22l-.8.4-.159.882.611.655.348.062.8-.402.16-.881-.612-.654-.348-.063zM58 31l-.8.4v.002l-.16.881.612.654L58 33l.8-.402.159-.881-.612-.654L58 31zm-35.844 2.254l-.8.402-.159.881.611.654.348.063.8-.4.16-.883-.612-.655-.348-.062zm35.262 2.219l-.803.4-.156.883.611.654.348.063.8-.403.159-.88-.614-.655-.345-.062zm-34.145 2.15l-.8.4-.159.883.614.654.345.063.801-.402.158-.881-.611-.655-.348-.062zm32.498 2.047l-.8.402-.159.881.614.654.345.063.803-.4.156-.883-.611-.655-.348-.062zm-30.32 1.898l-.8.403-.159.883.613.654.346.06.803-.4.156-.883-.611-.654-.348-.063zm27.656 1.74l-.8.403-.159.883.614.654.345.06.803-.4.156-.883-.611-.654-.348-.062zm-24.58 1.561l-.8.4-.159.883.611.655.348.062.801-.402.158-.881-.611-.654-.348-.063zm21.11 1.316l-.801.4-.158.884.61.654.349.063.8-.403.159-.88-.612-.655-.347-.063zm-17.293 1.087l-.801.402-.158.88.61.657.349.06.8-.4.159-.883-.614-.654-.345-.063zm13.216.843l-.8.4-.159.883.612.655.347.062.801-.402.158-.881-.61-.656-.349-.06zm-8.931.559l-.803.4-.156.883.611.654.348.063.8-.402.159-.881-.614-.655-.345-.062zm4.5.27l-.801.4-.158.883.613.654.346.062.8-.402.159-.88-.612-.655-.347-.063zm12.287 3.214l5.975 13.656-7.877-.874-4.465 6.523-5.446-12.832a3.798 3.798 0 001.11-.756l2.029-2.03 2.652 1.1h.002a3.852 3.852 0 005.012-2.078l.008-.017 1-2.692zM26.117 53h.45l1.07 1.963-.045-.096a3.853 3.853 0 005.013 2.078l2.653-1.1 2.029 2.03c.332.332.716.578 1.121.762l-5.457 12.826-4.465-6.523-7.889.876L26.117 53z" fill="#E4B564"/></svg>
